images/20056532.svg

<?xml version="1.0" encoding="UTF-8"?>
<svg xmlns="http://www.w3.org/2000/svg" xmlns:xlink="http://www.w3.org/1999/xlink" width="300pt" height="300pt" viewBox="0 0 300 300" version="1.1">
<defs>
<g>
<symbol overflow="visible" id="glyph0-0">
<path style="stroke:none;" d="M 0.546875 1.9375 L 0.546875 -7.75 L 6.046875 -7.75 L 6.046875 1.9375 Z M 1.171875 1.328125 L 5.4375 1.328125 L 5.4375 -7.140625 L 1.171875 -7.140625 Z M 1.171875 1.328125 "/>
</symbol>
<symbol overflow="visible" id="glyph0-1">
<path style="stroke:none;" d="M 4.328125 -7.28125 C 3.546875 -7.28125 2.921875 -6.984375 2.453125 -6.390625 C 1.992188 -5.804688 1.765625 -5.007812 1.765625 -4 C 1.765625 -2.988281 1.992188 -2.1875 2.453125 -1.59375 C 2.921875 -1.007812 3.546875 -0.71875 4.328125 -0.71875 C 5.117188 -0.71875 5.742188 -1.007812 6.203125 -1.59375 C 6.660156 -2.1875 6.890625 -2.988281 6.890625 -4 C 6.890625 -5.007812 6.660156 -5.804688 6.203125 -6.390625 C 5.742188 -6.984375 5.117188 -7.28125 4.328125 -7.28125 Z M 4.328125 -8.171875 C 5.453125 -8.171875 6.351562 -7.789062 7.03125 -7.03125 C 7.707031 -6.28125 8.046875 -5.269531 8.046875 -4 C 8.046875 -2.738281 7.707031 -1.726562 7.03125 -0.96875 C 6.351562 -0.21875 5.453125 0.15625 4.328125 0.15625 C 3.203125 0.15625 2.300781 -0.21875 1.625 -0.96875 C 0.957031 -1.71875 0.625 -2.726562 0.625 -4 C 0.625 -5.269531 0.957031 -6.28125 1.625 -7.03125 C 2.300781 -7.789062 3.203125 -8.171875 4.328125 -8.171875 Z M 4.328125 -8.171875 "/>
</symbol>
</g>
</defs>
<g id="surface38477">
<rect x="0" y="0" width="300" height="300" style="fill:rgb(100%,100%,100%);fill-opacity:1;stroke:none;"/>
<path style="fill:none;stroke-width:1.2;stroke-linecap:butt;stroke-linejoin:miter;stroke:rgb(0%,0%,0%);stroke-opacity:1;stroke-miterlimit:10;" d="M 35.25 145.300781 L 60.0625 136.085938 "/>
<path style="fill:none;stroke-width:1.2;stroke-linecap:butt;stroke-linejoin:miter;stroke:rgb(0%,0%,0%);stroke-opacity:1;stroke-miterlimit:10;" d="M 63.132812 136.609375 L 65.34375 123.558594 "/>
<path style="fill:none;stroke-width:1.2;stroke-linecap:butt;stroke-linejoin:miter;stroke:rgb(100%,0%,0%);stroke-opacity:1;stroke-miterlimit:10;" d="M 65.34375 123.558594 L 67.558594 110.511719 "/>
<path style="fill:none;stroke-width:1.2;stroke-linecap:butt;stroke-linejoin:miter;stroke:rgb(0%,0%,0%);stroke-opacity:1;stroke-miterlimit:10;" d="M 56.992188 135.566406 L 59.203125 122.519531 "/>
<path style="fill:none;stroke-width:1.2;stroke-linecap:butt;stroke-linejoin:miter;stroke:rgb(100%,0%,0%);stroke-opacity:1;stroke-miterlimit:10;" d="M 59.203125 122.519531 L 61.417969 109.472656 "/>
<path style="fill:none;stroke-width:1;stroke-linecap:butt;stroke-linejoin:miter;stroke:rgb(0%,0%,0%);stroke-opacity:1;stroke-miterlimit:10;" d="M 80.445312 152.96875 L 80.445312 152.96875 M 78.503906 150.679688 L 77.839844 151.484375 M 76.558594 148.394531 L 75.230469 150 M 74.617188 146.109375 L 72.621094 148.519531 M 72.675781 143.824219 L 70.015625 147.035156 M 70.730469 141.539062 L 67.40625 145.554688 M 68.789062 139.253906 L 64.796875 144.070312 M 66.84375 136.964844 L 62.191406 142.589844 M 64.902344 134.679688 L 59.582031 141.105469 M 63.039062 132.488281 L 57.082031 139.683594 "/>
<path style=" stroke:none;fill-rule:nonzero;fill:rgb(100%,100%,100%);fill-opacity:1;" d="M 60.488281 103.492188 L 69.488281 103.492188 L 69.488281 116.492188 L 60.488281 116.492188 Z M 60.488281 103.492188 "/>
<g style="fill:rgb(100%,0%,0%);fill-opacity:1;">
  <use xlink:href="#glyph0-1" x="60.488281" y="113.393555"/>
</g>
<path style="fill:none;stroke-width:1.2;stroke-linecap:butt;stroke-linejoin:miter;stroke:rgb(0%,0%,0%);stroke-opacity:1;stroke-miterlimit:10;" d="M 80.445312 152.96875 L 78.773438 179.382812 "/>
<path style="fill:none;stroke-width:1.2;stroke-linecap:butt;stroke-linejoin:miter;stroke:rgb(0%,0%,0%);stroke-opacity:1;stroke-miterlimit:10;" d="M 106.085938 146.398438 L 80.445312 152.96875 "/>
<path style="fill:none;stroke-width:1.2;stroke-linecap:butt;stroke-linejoin:miter;stroke:rgb(0%,0%,0%);stroke-opacity:1;stroke-miterlimit:10;" d="M 78.773438 179.382812 L 103.375 189.136719 "/>
<path style="fill:none;stroke-width:1;stroke-linecap:butt;stroke-linejoin:miter;stroke:rgb(0%,0%,0%);stroke-opacity:1;stroke-miterlimit:10;" d="M 120.257812 168.75 L 120.257812 168.75 M 117.96875 170.691406 L 118.773438 171.359375 M 115.683594 172.636719 L 117.289062 173.964844 M 113.398438 174.578125 L 115.808594 176.574219 M 111.113281 176.523438 L 114.324219 179.183594 M 108.828125 178.464844 L 112.84375 181.789062 M 106.542969 180.40625 L 111.359375 184.398438 M 104.253906 182.351562 L 109.878906 187.007812 M 101.96875 184.292969 L 108.394531 189.613281 M 99.777344 186.15625 L 106.972656 192.113281 "/>
<path style="fill:none;stroke-width:1.2;stroke-linecap:butt;stroke-linejoin:miter;stroke:rgb(0%,0%,0%);stroke-opacity:1;stroke-miterlimit:10;" d="M 120.257812 168.75 L 106.085938 146.398438 "/>
<path style="fill:none;stroke-width:1.2;stroke-linecap:butt;stroke-linejoin:miter;stroke:rgb(0%,0%,0%);stroke-opacity:1;stroke-miterlimit:10;" d="M 146.699219 167.652344 L 120.257812 168.75 "/>
<path style="fill:none;stroke-width:1.2;stroke-linecap:butt;stroke-linejoin:miter;stroke:rgb(0%,0%,0%);stroke-opacity:1;stroke-miterlimit:10;" d="M 106.085938 146.398438 L 118.359375 122.949219 "/>
<path style="fill:none;stroke-width:1;stroke-linecap:butt;stroke-linejoin:miter;stroke:rgb(0%,0%,0%);stroke-opacity:1;stroke-miterlimit:10;" d="M 106.085938 146.398438 L 106.085938 146.398438 M 104.660156 143.757812 L 103.84375 144.402344 M 103.234375 141.117188 L 101.597656 142.410156 M 101.808594 138.476562 L 99.355469 140.417969 M 100.382812 135.835938 L 97.113281 138.425781 M 98.957031 133.199219 L 94.871094 136.433594 M 97.535156 130.558594 L 92.628906 134.441406 M 96.109375 127.917969 L 90.386719 132.449219 M 94.683594 125.277344 L 88.144531 130.457031 M 93.316406 122.746094 L 85.992188 128.546875 "/>
<path style="fill:none;stroke-width:1.2;stroke-linecap:butt;stroke-linejoin:miter;stroke:rgb(0%,0%,0%);stroke-opacity:1;stroke-miterlimit:10;" d="M 118.359375 122.949219 L 144.800781 121.851562 "/>
<path style="fill:none;stroke-width:1;stroke-linecap:butt;stroke-linejoin:miter;stroke:rgb(0%,0%,0%);stroke-opacity:1;stroke-miterlimit:10;" d="M 158.972656 144.203125 L 158.972656 144.203125 M 157.832031 141.429688 L 156.949219 141.988281 M 156.691406 138.65625 L 154.929688 139.773438 M 155.546875 135.882812 L 152.90625 137.554688 M 154.40625 133.105469 L 150.882812 135.339844 M 153.265625 130.332031 L 148.863281 133.125 M 152.125 127.558594 L 146.839844 130.910156 M 150.984375 124.785156 L 144.816406 128.691406 M 149.839844 122.011719 L 142.796875 126.476562 M 148.746094 119.351562 L 140.855469 124.351562 "/>
<path style="fill:none;stroke-width:1.2;stroke-linecap:butt;stroke-linejoin:miter;stroke:rgb(0%,0%,0%);stroke-opacity:1;stroke-miterlimit:10;" d="M 158.972656 144.203125 L 146.699219 167.652344 "/>
<path style="fill:none;stroke-width:1.2;stroke-linecap:butt;stroke-linejoin:miter;stroke:rgb(0%,0%,0%);stroke-opacity:1;stroke-miterlimit:10;" d="M 185.417969 143.109375 L 158.972656 144.203125 "/>
<path style=" stroke:none;fill-rule:nonzero;fill:rgb(0%,0%,0%);fill-opacity:1;" d="M 146.699219 167.652344 L 156.925781 192.507812 L 164.816406 187.507812 Z M 146.699219 167.652344 "/>
<path style="fill:none;stroke-width:1.2;stroke-linecap:butt;stroke-linejoin:miter;stroke:rgb(0%,0%,0%);stroke-opacity:1;stroke-miterlimit:10;" d="M 160.871094 190.007812 L 187.316406 188.910156 "/>
<path style="fill:none;stroke-width:1.2;stroke-linecap:butt;stroke-linejoin:miter;stroke:rgb(0%,0%,0%);stroke-opacity:1;stroke-miterlimit:10;" d="M 163.257812 183.675781 L 184.414062 182.796875 "/>
<path style="fill:none;stroke-width:1.2;stroke-linecap:butt;stroke-linejoin:miter;stroke:rgb(0%,0%,0%);stroke-opacity:1;stroke-miterlimit:10;" d="M 187.316406 188.910156 L 199.589844 165.460938 "/>
<path style="fill:none;stroke-width:1.2;stroke-linecap:butt;stroke-linejoin:miter;stroke:rgb(0%,0%,0%);stroke-opacity:1;stroke-miterlimit:10;" d="M 199.589844 165.460938 L 226.03125 164.367188 "/>
<path style="fill:none;stroke-width:1.2;stroke-linecap:butt;stroke-linejoin:miter;stroke:rgb(0%,0%,0%);stroke-opacity:1;stroke-miterlimit:10;" d="M 201.976562 159.128906 L 223.128906 158.253906 "/>
<path style="fill:none;stroke-width:1.2;stroke-linecap:butt;stroke-linejoin:miter;stroke:rgb(0%,0%,0%);stroke-opacity:1;stroke-miterlimit:10;" d="M 185.417969 143.109375 L 199.589844 165.460938 "/>
<path style="fill:none;stroke-width:1.2;stroke-linecap:butt;stroke-linejoin:miter;stroke:rgb(0%,0%,0%);stroke-opacity:1;stroke-miterlimit:10;" d="M 226.03125 164.367188 L 238.304688 140.917969 "/>
<path style="fill:none;stroke-width:1.2;stroke-linecap:butt;stroke-linejoin:miter;stroke:rgb(0%,0%,0%);stroke-opacity:1;stroke-miterlimit:10;" d="M 238.433594 144.027344 L 251.65625 143.480469 "/>
<path style="fill:none;stroke-width:1.2;stroke-linecap:butt;stroke-linejoin:miter;stroke:rgb(100%,0%,0%);stroke-opacity:1;stroke-miterlimit:10;" d="M 251.65625 143.480469 L 264.878906 142.929688 "/>
<path style="fill:none;stroke-width:1.2;stroke-linecap:butt;stroke-linejoin:miter;stroke:rgb(0%,0%,0%);stroke-opacity:1;stroke-miterlimit:10;" d="M 238.175781 137.804688 L 251.398438 137.257812 "/>
<path style="fill:none;stroke-width:1.2;stroke-linecap:butt;stroke-linejoin:miter;stroke:rgb(100%,0%,0%);stroke-opacity:1;stroke-miterlimit:10;" d="M 251.398438 137.257812 L 264.621094 136.710938 "/>
<path style="fill:none;stroke-width:1.2;stroke-linecap:butt;stroke-linejoin:miter;stroke:rgb(0%,0%,0%);stroke-opacity:1;stroke-miterlimit:10;" d="M 238.304688 140.917969 L 224.132812 118.5625 "/>
<path style=" stroke:none;fill-rule:nonzero;fill:rgb(100%,100%,100%);fill-opacity:1;" d="M 260.75 133.320312 L 269.75 133.320312 L 269.75 146.320312 L 260.75 146.320312 Z M 260.75 133.320312 "/>
<g style="fill:rgb(100%,0%,0%);fill-opacity:1;">
  <use xlink:href="#glyph0-1" x="260.75" y="143.22168"/>
</g>
<path style="fill:none;stroke-width:1.2;stroke-linecap:butt;stroke-linejoin:miter;stroke:rgb(0%,0%,0%);stroke-opacity:1;stroke-miterlimit:10;" d="M 224.132812 118.5625 L 197.691406 119.660156 "/>
<path style="fill:none;stroke-width:1.2;stroke-linecap:butt;stroke-linejoin:miter;stroke:rgb(0%,0%,0%);stroke-opacity:1;stroke-miterlimit:10;" d="M 197.691406 119.660156 L 185.417969 143.109375 "/>
<path style=" stroke:none;fill-rule:nonzero;fill:rgb(0%,0%,0%);fill-opacity:1;" d="M 185.417969 143.109375 L 175.191406 118.253906 L 167.300781 123.257812 Z M 185.417969 143.109375 "/>
</g>
</svg>

<svg xmlns="http://www.w3.org/2000/svg" xmlns:xlink="http://www.w3.org/1999/xlink" width="300pt" height="300pt" viewBox="0 0 300 300"><defs><symbol overflow="visible"><path d="M.547 1.938V-7.75h5.5v9.688zm.625-.61h4.266v-8.47H1.171zm0 0"/></symbol><symbol overflow="visible" id="a"><path d="M4.328-7.28c-.78 0-1.406.296-1.875.89-.46.585-.687 1.382-.687 2.39 0 1.012.226 1.813.687 2.406.47.586 1.094.875 1.875.875.79 0 1.414-.288 1.875-.874.457-.593.688-1.394.688-2.406 0-1.008-.23-1.805-.687-2.39-.46-.594-1.086-.89-1.875-.89zm0-.892c1.125 0 2.024.383 2.703 1.14C7.708-6.28 8.048-5.27 8.048-4c0 1.262-.34 2.273-1.016 3.03C6.353-.22 5.454.157 4.33.157S2.3-.22 1.625-.97c-.668-.75-1-1.757-1-3.03 0-1.27.332-2.28 1-3.03.676-.76 1.578-1.142 2.703-1.142zm0 0"/></symbol></defs><g><path fill="#fff" d="M0 0h300v300H0z"/><path d="M35.25 145.3l24.813-9.214M63.133 136.61l2.21-13.05" stroke-width="1.2" stroke="#000" stroke-miterlimit="10" fill="none"/><path d="M65.344 123.56l2.215-13.048" stroke-width="1.2" stroke="#f00" stroke-miterlimit="10" fill="none"/><path d="M56.992 135.566l2.21-13.046" stroke-width="1.2" stroke="#000" stroke-miterlimit="10" fill="none"/><path d="M59.203 122.52l2.215-13.047" stroke-width="1.2" stroke="#f00" stroke-miterlimit="10" fill="none"/><path d="M80.445 152.97m-1.94-2.29l-.665.804m-1.28-3.09L75.23 150m-.613-3.89l-1.996 2.41m.056-4.696l-2.66 3.21m.714-5.495l-3.324 4.015m1.383-6.3l-3.993 4.815m2.047-7.105l-4.653 5.625m2.712-7.91l-5.32 6.425m3.457-8.617l-5.958 7.196" stroke="#000" stroke-miterlimit="10" fill="none"/><path d="M60.488 103.492h9v13h-9zm0 0" fill="#fff"/><use xlink:href="#a" x="60.488" y="113.394" fill="#f00"/><path d="M80.445 152.97l-1.672 26.413M106.086 146.398l-25.64 6.57M78.773 179.383l24.602 9.754" stroke-width="1.2" stroke="#000" stroke-miterlimit="10" fill="none"/><path d="M120.258 168.75m-2.29 1.94l.805.67m-3.09 1.277l1.606 1.328m-3.892.613l2.41 1.996m-4.695-.05l3.21 2.66m-5.495-.72l4.016 3.325m-6.3-1.384l4.815 3.992m-7.106-2.046l5.625 4.656m-7.91-2.715l6.425 5.32m-8.618-3.457l7.196 5.957" stroke="#000" stroke-miterlimit="10" fill="none"/><path d="M120.258 168.75l-14.172-22.352M146.7 167.652l-26.442 1.098M106.086 146.398l12.273-23.45" stroke-width="1.2" stroke="#000" stroke-miterlimit="10" fill="none"/><path d="M106.086 146.398m-1.426-2.64l-.816.644m-.61-3.285l-1.636 1.293m.21-3.933l-2.453 1.94m1.028-4.58l-3.27 2.59m1.844-5.228l-4.086 3.234m2.665-5.875l-4.906 3.88m3.48-6.522l-5.723 4.53m4.297-7.17l-6.54 5.18m5.172-7.712l-7.324 5.8" stroke="#000" stroke-miterlimit="10" fill="none"/><path d="M118.36 122.95l26.44-1.098" stroke-width="1.2" stroke="#000" stroke-miterlimit="10" fill="none"/><path d="M158.973 144.203m-1.14-2.773l-.884.558m-.26-3.332l-1.76 1.117m.617-3.89l-2.64 1.672m1.5-4.45l-3.524 2.235m2.383-5.008l-4.403 2.793m3.262-5.566l-5.285 3.35m4.144-6.125l-6.168 3.906m5.024-6.678l-7.043 4.465m5.95-7.125l-7.892 5" stroke="#000" stroke-miterlimit="10" fill="none"/><path d="M158.973 144.203l-12.274 23.45M185.418 143.11l-26.445 1.093" stroke-width="1.2" stroke="#000" stroke-miterlimit="10" fill="none"/><path d="M146.7 167.652l10.226 24.856 7.89-5zm0 0"/><path d="M160.87 190.008l26.446-1.098M163.258 183.676l21.156-.88M187.316 188.91l12.274-23.45M199.59 165.46l26.44-1.093M201.977 159.13l21.152-.876M185.418 143.11l14.172 22.35M226.03 164.367l12.275-23.45M238.434 144.027l13.222-.547" stroke-width="1.2" stroke="#000" stroke-miterlimit="10" fill="none"/><path d="M251.656 143.48l13.223-.55" stroke-width="1.2" stroke="#f00" stroke-miterlimit="10" fill="none"/><path d="M238.176 137.805l13.222-.547" stroke-width="1.2" stroke="#000" stroke-miterlimit="10" fill="none"/><path d="M251.398 137.258l13.223-.547" stroke-width="1.2" stroke="#f00" stroke-miterlimit="10" fill="none"/><path d="M238.305 140.918l-14.172-22.356" stroke-width="1.2" stroke="#000" stroke-miterlimit="10" fill="none"/><path d="M260.75 133.32h9v13h-9zm0 0" fill="#fff"/><use xlink:href="#a" x="260.75" y="143.222" fill="#f00"/><path d="M224.133 118.563l-26.442 1.097M197.69 119.66l-12.272 23.45" stroke-width="1.2" stroke="#000" stroke-miterlimit="10" fill="none"/><path d="M185.418 143.11l-10.227-24.856-7.89 5.004zm0 0"/></g></svg>
